X:1
T:The Barley Raking
M:6/8
L:1/8
K:G
 G| B2 D D2 D| E2 E D2 B| c2 B A2 G| E2- F G2B/2-A/2| G2 D D2 D| E2 E D2 B/2B/2|\
 c2 B A2 G| E2- F G2 G| A2 B ccd| c2 A B2 D| G2 A B2 B| A2 F D2 D|\
 G2 A B2 d| c2 c B2 A| B2 G D2 D| E2- F G2 G| BAA A2 G| A2 F D2 D|\
 AAA A2 G| A2 F D2 D| G2 A B2 d| c2 c B2 A| B2 G E2 D| G3 G2||
